tools/download-figma-icons/icons/outlined-large/craftsman.svg

<svg width="64" height="65" viewBox="0 0 64 65" fill="none" xmlns="http://www.w3.org/2000/svg">
<path fill-rule="evenodd" clip-rule="evenodd" d="M25.1887 36.9393C25.1885 36.9391 25.1883 36.9389 25.1879 36.9385L24.2089 39.6985L30.9799 46.4685L37.7509 39.6985L36.7879 36.9805C35.2579 37.6905 33.6289 38.0895 31.9799 38.0895H29.9799C28.3599 38.0895 26.7299 37.6695 25.1899 36.9395C25.1893 36.9395 25.189 36.9395 25.1887 36.9393ZM19.9799 23.0895V25.0895C19.9799 29.6605 24.8799 35.0895 29.9799 35.0895H31.9799C37.0999 35.0895 41.9799 29.6605 41.9799 25.0895V23.0895C41.9799 23.0895 43.9799 23.0705 43.9799 21.0895V19.0895C43.9799 18.0895 43.4899 17.5895 42.9899 17.3395C42.4999 17.0895 41.9999 17.0895 41.9799 17.0895C46.7099 10.2295 39.2499 3.08949 39.2499 3.08949C39.2499 3.08949 36.8899 7.66049 27.4299 7.66049C19.1808 7.66049 19.6565 13.1004 19.9106 16.0062C19.9476 16.4292 19.9799 16.7985 19.9799 17.0895C17.9794 17.1093 17.9797 18.3257 17.9799 19.0679L17.9799 19.0895V20.0595V21.0895C17.9799 23.0495 19.8099 23.0895 19.9699 23.0895H19.9799ZM32.0409 49.6505C31.7479 49.9435 31.3639 50.0895 30.9799 50.0895C30.5959 50.0895 30.2119 49.9435 29.9189 49.6505L22.1219 41.8525L13.0429 45.5225C11.0669 46.2985 9.67089 47.8885 9.29589 49.7795L5.93289 62.9605C5.75989 63.6385 5.14989 64.0895 4.48089 64.0895C4.31989 64.0895 4.15689 64.0645 3.99189 64.0075C3.23689 63.7465 2.85389 62.8955 3.05089 62.1225L6.37189 49.1165C6.92789 46.2965 9.01389 43.8815 11.9319 42.7355L21.2919 38.9525L22.4829 35.5885C22.5139 35.5005 22.5549 35.4175 22.5999 35.3395C19.3399 32.8495 16.9999 28.9795 16.9799 25.1395C15.8099 24.3095 14.9799 22.9395 14.9799 21.0895V19.0705C14.9799 17.0895 15.7399 15.7905 16.8299 15.0195C16.7199 12.9195 16.8799 9.96949 18.9999 7.66049C20.8299 5.66949 23.6599 4.66049 27.4299 4.66049C34.2499 4.66049 36.3299 2.07049 36.6099 1.66049C36.9999 0.780488 37.7499 0.240488 38.6999 0.0494883C38.8699 0.00948828 39.0399 0.000488281 39.1999 0.000488281C39.9899 0.000488281 40.7399 0.359488 41.3299 0.919488C44.1099 3.58949 48.0799 9.72949 45.9199 15.9295C46.5699 16.7295 46.9799 17.7905 46.9799 19.0895V21.0895C46.9799 22.9295 46.1399 24.2905 44.9799 25.1205C44.9699 29.0495 42.6499 32.9195 39.3899 35.3995C39.3889 35.4005 39.3889 35.4005 39.3879 35.4005C39.392 35.4083 39.3961 35.4161 39.4002 35.4239C39.4284 35.4772 39.4568 35.5309 39.4769 35.5885L40.8939 39.5885C41.0869 40.1335 40.9499 40.7415 40.5409 41.1505L32.0409 49.6505ZM34.32 61.0502C34.67 61.0502 35.01 60.9202 35.27 60.6602L47.49 48.4502L48.56 47.3802C49.131 46.8072 49.979 46.5522 50.746 46.8092C51.298 46.9962 51.884 47.0902 52.48 47.0902C52.61 47.0902 52.74 47.0902 52.86 47.0702C55.4 46.8992 57.47 45.0002 57.9 42.5302L56.655 43.7742C55.813 44.6172 54.671 45.0902 53.48 45.0902H53.38C52.23 45.0592 51.12 44.5902 50.3 43.7692C49.44 42.9102 49.01 41.7802 48.99 40.6492C48.97 39.4792 49.41 38.3002 50.3 37.4102L51.54 36.1702C49.09 36.5992 47.19 38.6392 46.999 41.1602C46.9982 41.1728 46.9974 41.1853 46.9965 41.1979C46.9883 41.3253 46.98 41.4528 46.98 41.5902C46.98 42.1712 47.068 42.7372 47.239 43.2732C47.485 44.0442 47.232 44.8882 46.66 45.4602L45.59 46.5402L33.416 58.7142C32.883 59.2472 32.837 60.1652 33.389 60.6782C33.656 60.9262 33.988 61.0502 34.32 61.0502ZM59.38 37.7802C59.87 37.8892 60.28 38.2402 60.46 38.7202C60.812 39.6342 60.982 40.5982 60.98 41.6022C60.973 45.9732 57.516 49.7392 53.158 50.0642C52.189 50.1372 51.249 50.0552 50.36 49.8202L37.531 62.6492C36.815 63.3652 35.9 63.8862 34.895 64.0142C33.524 64.1872 32.205 63.7342 31.249 62.7802C30.295 61.8252 29.842 60.5062 30.016 59.1352C30.144 58.1302 30.665 57.2152 31.38 56.4992L44.23 43.6492C44.067 43.0152 43.987 42.3532 43.98 41.6732C43.938 36.8902 47.654 33.1132 52.436 33.0902C53.452 33.0852 54.426 33.2552 55.35 33.6092C55.83 33.7902 56.18 34.2002 56.29 34.6892C56.39 35.1892 56.24 35.7102 55.88 36.0702L52.42 39.5302C51.818 40.1412 51.831 41.0982 52.457 41.6842C53.04 42.2322 54.046 42.1432 54.612 41.5782L57.999 38.1892C58.36 37.8302 58.88 37.6802 59.38 37.7802Z" fill="black"/>
</svg>

<svg xmlns="http://www.w3.org/2000/svg" width="64" height="65" fill="none" viewBox="0 0 64 65"><path fill="currentColor" fill-rule="evenodd" d="m25.189 36.94-.001-.002-.98 2.76 6.772 6.77 6.77-6.77-.962-2.718c-1.53.71-3.16 1.11-4.808 1.11h-2c-1.62 0-3.25-.42-4.79-1.15zm-5.21-13.85v2c0 4.57 4.9 10 10 10h2c5.12 0 10-5.43 10-10v-2s2-.02 2-2v-2c0-1-.49-1.5-.99-1.75-.49-.25-.99-.25-1.01-.25 4.73-6.86-2.73-14-2.73-14s-2.36 4.57-11.82 4.57c-8.248 0-7.772 5.44-7.518 8.346.037.423.069.793.069 1.084-2 .02-2 1.236-2 1.978v2.021c0 1.96 1.83 2 1.99 2zm12.062 26.56a1.5 1.5 0 0 1-1.061.44c-.384 0-.768-.147-1.061-.44l-7.797-7.797-9.08 3.67c-1.975.775-3.371 2.365-3.746 4.256L5.933 62.962a1.5 1.5 0 0 1-1.941 1.046c-.755-.26-1.138-1.112-.941-1.885l3.32-13.005c.557-2.82 2.643-5.235 5.56-6.381l9.36-3.783 1.192-3.364c.03-.088.072-.172.117-.25-3.26-2.49-5.6-6.36-5.62-10.2-1.17-.83-2-2.2-2-4.05v-2.018c0-1.982.76-3.28 1.85-4.052-.11-2.1.05-5.05 2.17-7.359 1.83-1.99 4.66-3 8.43-3 6.82 0 8.9-2.59 9.18-3C37 .78 37.75.24 38.7.05c.17-.04.34-.05.5-.05.79 0 1.54.36 2.13.92 2.78 2.67 6.75 8.81 4.59 15.01.65.8 1.06 1.86 1.06 3.16v2c0 1.84-.84 3.2-2 4.03-.01 3.93-2.33 7.8-5.59 10.28h-.002l.012.024c.028.053.057.107.077.165l1.417 4a1.5 1.5 0 0 1-.353 1.562zm2.279 11.4c.35 0 .69-.13.95-.39l12.22-12.21 1.07-1.07c.571-.573 1.419-.828 2.186-.57a5.4 5.4 0 0 0 1.734.28c.13 0 .26 0 .38-.02a5.5 5.5 0 0 0 5.04-4.54l-1.245 1.244a4.5 4.5 0 0 1-3.175 1.316h-.1a4.53 4.53 0 0 1-3.08-1.32 4.5 4.5 0 0 1-1.31-3.12 4.47 4.47 0 0 1 1.31-3.24l1.24-1.24c-2.45.43-4.35 2.47-4.541 4.99q0 .019-.003.038a5.5 5.5 0 0 0 .242 2.075c.247.771-.006 1.615-.578 2.187l-1.07 1.08-12.174 12.174c-.533.533-.579 1.451-.027 1.964.267.248.599.372.931.372m25.06-23.27c.49.11.9.46 1.08.94.352.914.522 1.878.52 2.882-.007 4.371-3.464 8.137-7.822 8.462a8.4 8.4 0 0 1-2.798-.244L37.531 62.65c-.716.715-1.631 1.236-2.636 1.364a4.34 4.34 0 0 1-3.646-1.234 4.33 4.33 0 0 1-1.233-3.645c.128-1.005.649-1.92 1.364-2.636l12.85-12.85a8.3 8.3 0 0 1-.25-1.976c-.042-4.783 3.674-8.56 8.456-8.583a8 8 0 0 1 2.914.52c.48.18.83.59.94 1.08.1.5-.05 1.02-.41 1.38l-3.46 3.46a1.49 1.49 0 0 0 .037 2.154c.583.548 1.589.46 2.155-.106l3.387-3.389a1.53 1.53 0 0 1 1.381-.409" clip-rule="evenodd"/></svg>
